X:1
T:Prestez moy lung
T:Prestez moy lung
T:Thomas Crecquillon
C:Thomas Crecquillon
%%score [ 1 [ 2 3 ] 4 ]
L:1/8
Q:1/4=84
M:2/2
K:F
V:1 treble nm="Altus" snm="A"
V:2 treble-8 nm="Tenor 1" snm="T 1"
V:3 treble-8 nm="Tenor 2" snm="T 2"
V:4 bass nm="Bass" snm="B"
V:1
 z8 | z8 | z4 D4 | F8 | E4 D4- | D8 | z4 z2 D2 | G6 F2 | G2 B4 AG | A2 B3 A G2- | G2 F2 G4 | %11
w: ||Pres-|tez|moy lung|_|de|ces yeulx,|bien _ _ _|_ _ _ _|* a- pris|
 z2 G2 B3 A |"^b" G2 F2 E4 | D2 D2 F3 E | D4 C2 C2 | F4 z2 F2 | B3 A G2 F2 | E2 D4 C2 | D8- | D8 | %20
w: à fa- *|* * re'ay-|mer, à fai- *|re'ay- mer, sca-|vez, sca-|vez _ _ que|je _ fe-|ray|_|
 z2 F2 F2 D2 | G2 G2 F3 G | A2 B2 A2 c2- | cB A4 G2 | A8 | z4 A4 | A2 G2 F2 A2 | c2 G2 B2 A2- | %28
w: in- con- ti-|nent, je vous _|_ re- gar- *|* * * de-|ray,|et|vous pren- dray ain-|si que m'a- *|
 AG G3 F F2- | FE E4 D2- | D2 C2 DEFG | AFGA B2 A2- | A2 G2 A4- | A4 z4 | A4 A2 G2 | F2 A2 c2 G2 | %36
w: ||* vez pris, _ _ _|_ _ _ _ _ _|||et vous pren-|dray ain- si que|
 B2 A4 G2- | G2 F4 E2- |"^#" E2 D4 C2 | D8- | D8- | D8 |] %42
w: m'a- * *||* * vez|pris.|_||
V:2
 z8 | A4 c4- | c4 B4 | A4 B2 F2 | c2 c2 F2 G2- | G2 F2 B4 | A2 A2 d4- | d2 c2 d2 f2- | %8
w: |Pres- tez|_ moy|lung de ces|yeulx bien a- pris,|_ de ces|yeulx bien _|_ _ _ _|
 f2 e2 f3 e/d/ | c2 d2 B2 c2 | d8- | d4 z2 B2 |"^b" e2 d2 c3 B | A2 B3 A A2- | A2 G2 A4 | %15
w: |* * * a-|pris|_ à|fai- * * *||* re'ay- mer,|
 z2 A2 d4 |"^b" z2 B2 e2 d2 | c2 B2 A4 | F4 z2 A2 | A2 F2 B2 B2 | AGFE D2 d2- | d2 c2 d4 | %22
w: sca- vez,|sca- vez que|je _ fe-|ray in-|con- ti- nent vous|re- * * * * gar-|* de- ray,|
 f4 f2 f2 | e2 f2 d2 z d | f2 c2 d2 f2 | f2 e2 d3 c | A2 c2 d2 f2- | f2 e2 d2 A2 | B2 c2 d4 | %29
w: [je- vous re-|gar- de- ray] et-|vous pren- dray ain-|si que m'a- *|* vez pris, ain|_ si que m'a-||
 c3 B A2 G2 | A6 A2 | c2 c2 d4 | z2 d2 f2 c2 | d2 f2 f2 e2 | d3 c A2 c2 | d2 f4 e2 | d2 A2 B2 c2 | %37
w: * * * vez|pris, et|vous pren- dray,|et vous pren-|dray, ain- si que|m'a- * * vez|pris, et vous|pren- dray ain- si|
 d4 c3 B | A2 G2 A4 | F4 G2 A2 | B2 B2 A4- | A8 |] %42
w: que m'a- *|||* vez pris.|_|
V:3
 z4 D4 | F6 ED | E2 F2 G4 | F2 F4 B2- | B2 A2 B2 B2 | A4 z2 G2 | c6 B2- | B2 AG B2 A2 | B4 c4 | %9
w: Pres-|tez _ _|_ moy lung|de ces yeulx|_ bien _ a-|pris, de|ces yeulx|_ _ _ _ _||
 F4 G4 | A4 G4- | G4 z2 G2 | B3 A G2 G2 | F2 G2 FD F2- | F2 ED E4 | z2 F2 B4 | z2 G2 B3 A | %17
w: bien a-|* pris|_ à|fai- * * re'ay-|mer, à fai- * re'ay-|* * * mer,|sca- vez,|sca- vez que|
 G2 F2 E4 | D4 z2 F2 | F2 D2 G2 G2 | F3 G A2 B2- | B2 AG B2 A2 | F2 d2 c2 A2 | c2 d2 B4 | %24
w: je _ fe-|ray in-|con- ti- nent vous|re- * * gar-||||
 A4 z2 A2 | A2 G2 F2 A2 | c2 G2 B2 A2- | AG G4 F2 | G3 A B2 A2- | A2 G2 F2 D2 | E4 D4 | z2 G4 F2 | %32
w: ray et|vous pren- dray ain-|si que m'a- *||||vez pris,|et vous|
 B4 A4 | z2 A2 A2 G2 | F2 A2 c2 G2 | B2 A3 G G2- | G2 F2 G3 A | B2 A4 G2 | F2 D2 E4 | D2 A2 B2 A2 | %40
w: pren- dray,|et vous pren-|dray ain- si que|m'a- * * *|* vez pris, _|_ et vous|pren- dray ain-|si que m'a- *|
"^#" G2 G2 F4- | F8 |] %42
w: * vez pris.|_|
V:4
 D,4 F,3 E, | D,4 C,3 B,, | A,,4 G,,4 | D,4 B,,2 D,2 | C,4 B,,2 G,,2 | D,2 D,2 G,4- | %6
w: Pres- tez _|_ moy _|_ _||* * lung|de ces yeulx|
 G,2 F,2 G,3 F, |"^b" E,4 D,2 D,2 | G,4 F,4- |"^b""^b" F,2 E,D, E,4 | D,4 z2 G,2 | %11
w: _ _ _ _|* * bien|a- *||pris à|
 B,3 A, G,F, _E,2- | E,2 B,,2 C,4 | D,2 G,,2 D,3 C, | B,,2 B,,2 A,,2 A,,2 | D,4 z2 B,,2- | %16
w: fai- * * * re'ay-|||* * mer, sca-|vez, sca-|
"^b" B,,2 E,4 B,,2 | C,2 D,2 A,,4 | D,8 | z2 B,,2 B,,2 G,,2 | D,3 E, F,2 G,2 | %21
w: * vez que|je _ fe-|ray|in- con- ti-|nent _ _ je-|
"^b""^b" E,2 E,2 D,2 D,2 | D,2 B,,2 F,3 G, | A,2 F,2 G,4 | z4 D,4 | F,2 C,2 D,2 F,2 | %26
w: vous re- gar- de-|ray, je vous re-|gar- de- ray,|et|vous pren- dray ain-|
 F,2 E,2 D,3 C, | A,,2 C,2 D,3 F, |"^b" E,4 D,3 C, | A,,2 C,2 D,2 B,,2 | A,,4 z2 F,2 | %31
w: si que m'a- *|||* * * vez|pris, et|
 F,2 E,2 D,4 | z8 | D,4 F,2 C,2 | D,2 F,2 F,2 E,2 | D,3 C, A,,2 C,2 |"^b" D,3 F, E,4 | %37
w: vous pren- dray,||et vous pren-|dray ain- si que|m'a- * * *||
 D,3 C, A,,2 C,2 | D,2 B,,2 A,,4 | z2 D,2 G,,2 D,2 | G,,2 G,,2 D,4- | D,8 |] %42
w: |* vez *|que vou m'a-|* vez pris.|_|

